public/avatar/body/210.svg

<svg xmlns:xlink="http://www.w3.org/1999/xlink" height="82" width="84.85" xmlns="http://www.w3.org/2000/svg"><g transform="translate(37.4 42.25)"><use height="38" transform="translate(-11.95 -17.45)" width="32.05" xlink:href="#a"/><use height="38.95" transform="translate(-12.45 -17.95)" width="33.05" xlink:href="#b"/><use height="24.15" transform="translate(-14.35 -.55)" width="36.55" xlink:href="#c"/></g><defs><path d="M27.35 7.4q2.15 4.15 3.55 8.75 1.45 4.7 1.15 9.5-.35 4.95-4.2 8.1-3.8 3.2-8.75 4.05l-2.6.2q-3.6 0-7.05-1.15-4.65-1.6-7.1-5.5Q-.2 27.4.05 23q.2-4.4 2-9.3Q3.85 8.75 7 5.05 10.1 1.3 14.7.1l1.8-.1q1.9.05 3.7.8 4.75 2.05 7.15 6.6" fill="#e9b8b8" fill-rule="evenodd" transform="translate(-.05)" id="d"/><path d="M27.35 7.4Q24.95 2.85 20.2.8 17.55-.3 14.7.1 10.1 1.3 7 5.05q-3.15 3.7-4.95 8.65-1.8 4.9-2 9.3-.25 4.4 2.3 8.35 2.45 3.9 7.1 5.5 4.65 1.55 9.65.95 4.95-.85 8.75-4.05 3.85-3.15 4.2-8.1.3-4.8-1.15-9.5-1.4-4.6-3.55-8.75Z" fill="none" stroke="#000" stroke-linecap="round" stroke-linejoin="round" transform="translate(.45 .5)" id="e"/><use height="38" width="32.05" xlink:href="#d" id="a"/><use height="38.95" width="33.05" xlink:href="#e" id="b"/><g id="c" fill-rule="evenodd"><path d="m22.1 16.3.1.3-.2.35L18.65 20l.25.55-.05.15-.35.3-5.6 1.55v.1l-.1.3-.35.15-8.45.5q-.5 0-.5-.4l-.05-.2-7.25-.2-.5-.5v-.35l-4.95-.9-.3-.25-.1-.25.05-.1.1-.55-4.35-1.9-.25-.3-.05-.2.05-.15 2.65-5.95.3-.3h.35q6.85 2.95 18.15 2.4 9.35-.5 10.95-1.7l.4-.1.35.2 3.05 4.4" fill="#030a36" transform="translate(14.35 .55)"/><path d="m4.15 22.05-7.45-.2-.1-.7-5.1-.95.05-.9-4.55-2 2.3-5.15q6.6 2.75 17.95 2.2 9.55-.45 11.2-1.6l2.6 3.75-3.55 3.1.1.65-5.7 1.55-.1.4-7.5.5-.15-.65" fill="#004dd6" transform="translate(14.35 .55)"/><path d="M8.3 22.4q1.45-4.1.7-8.15 4-.25 9.45-1.5l2.6 3.75-2 1.75L16 17.5l1.5 2.1.1.65-3.3.9-2.45-2.8q.2 2.7-.05 3.85l-3.5.2M1 21.9l2.55-5.3.55 5.45L1 21.9m-4.4-.75-2.15-.45 2.4-3.45-.25 3.9m-5.05-1.85-1.45-.6 1.85-2.05-.4 2.65" fill="#00124f" transform="translate(14.35 .55)"/><path d="M19.5 1.2q.5.1.5.45l.9 11.3-.1.35q-3.7 3.65-16.1 3.85-12.35.2-17.65-3.35l-.2-.45q.4-1.75.5-6.4l.2-4.75.3-.35h.55Q-9.5 3.1 4.75 8.5l9.15-4.75q4.95-2.7 5.6-2.55" fill="#4d63ab" transform="translate(14.35 .55)"/><path d="M4.8 9.45Q12.1 6 18.95 2.25l.85 10.55q-3.4 3.25-15 3.45-11.7.2-16.8-3.05.4-1.95.4-5.2l.15-5.05L4.8 9.45" fill="#fff" transform="translate(14.35 .55)"/><path d="m-9.15 14.5 2.3-2.55 1.2 3.45-3.5-.9M4.8 9.45Q12.1 6 18.95 2.25l.85 10.55q-1.1 1.1-3.65 1.9l-1.95-2.55-1.2 3.3q-8.3 1.55-17.05.2 2.45-4.9 2.5-8.65L4.8 9.45" fill="#ccecf4" transform="translate(14.35 .55)"/><path d="M4.4 10.6q.3.3 0 .6-.25.35-.6.15-2.35-1.1-7.15-1.4Q-7.3 9.7-8.8 9q-2.55-1.2-2.9-4.55-.1-.45.45-.55 2.1-.3 7.4 1.7Q2 7.8 4.4 10.6" fill="#440202" transform="translate(14.35 .55)"/><path d="M-4.55 6.35Q-.45 8 1.75 9.6l-7.45-.8q-4.35-.6-4.9-3.9 1.7-.25 6.05 1.45" fill="#d80000" transform="translate(14.35 .55)"/><path d="M-5.15 8.85Q-9.3 8.4-10.25 6q1.45 1.15 4 1.7l4.15-.25Q.25 8.5 1.75 9.6l-6.9-.75" fill="#960000" transform="translate(14.35 .55)"/><path d="m4.85 11.55-.65-.15q-.2-.3.05-.65Q6.65 8 12.5 5.8q5.25-2 7.4-1.7.5.1.4.55Q19.95 8 17.45 9.2q-1.5.7-5.45.95-4.9.3-7.15 1.4" fill="#440202" transform="translate(14.35 .55)"/><path d="M13.2 6.55q4.35-1.7 6-1.45-.5 3.3-4.85 3.85-5.3.2-7.45.85 2.15-1.6 6.3-3.25" fill="#d80000" transform="translate(14.35 .55)"/><path d="m6.9 9.8 1.6-1q5.25-.05 10.2-2.2-1.15 2.1-5.15 2.45L6.9 9.8" fill="#960000" transform="translate(14.35 .55)"/><path d="m-12.65-.25.35-.3Q-11.1-1 5 8.55q.3.2.2.55-.1.45-.5.35Q-.95 9.4-12.85 3.9l-1.2-.55-.3-.4.15-.4.9-.95.65-1.85" fill="#030a36" transform="translate(14.35 .55)"/><path d="M-11.8.5Q-7.95 2 2.6 8.3q-3.95-.6-9.75-2.95l-5.9-2.6.7-.7.55-1.55" fill="#004dd6" transform="translate(14.35 .55)"/><path d="m-13.05 2.75.6-.55q4.4 2.25 6.6 2.8l3.2.3 5.25 3q-3.95-.6-9.75-2.95l-5.9-2.6" fill="#00124f" transform="translate(14.35 .55)"/><path d="m20.6.25.55 1.8.35.45.55.5.1.45-.3.35-1.15.5Q9.4 9.5 3.6 9.4l-.45-.35q-.1-.4.25-.55 2.1-1.35 8.55-4.8 7.6-4.1 8.3-3.8l.35.35" fill="#030a36" transform="translate(14.35 .55)"/><path d="m19.75.9.5 1.55.65.75Q11.85 7.5 5.7 8.3 16.2 2.25 19.75.9" fill="#004dd6" transform="translate(14.35 .55)"/><path d="m20.05 1.9.2.55.65.75Q11.85 7.5 5.7 8.3l4.2-2.35q4.5-.75 10.15-4.05" fill="#00124f" transform="translate(14.35 .55)"/><path d="m3.3 8.3.2.3-.25.2q-4-.5-9.85-2.75-5.35-2-6.45-3.1-.2-.2 0-.4l.4.05q.9.95 6.15 2.95Q-.7 7.8 3.3 8.3m17.15-5.5q.2-.15.35 0 .25.25.1.4Q9.7 8.4 5.4 8.7l-.25-.2q0-.2.25-.3 4.15-.3 15.05-5.4" fill="#fff" transform="translate(14.35 .55)"/><path d="m-7.2 2.95.95.55 1.05.55 1.25.65-.75.15-1.15-.7-1.4-1.2h.05m22.7.2q0 .4-.4.6l-1.3.6-1.45.45 3.15-1.65m-26.9 12.1v.05q.05.85-.75 2.55l-.6-.2 1.35-2.4m3.65 2.65.1-.15-.3 2.65h-.45l.1-.5.55-2m5.05-.25h.1l.05 1.65.05 1.35.2 1.05h-.85l.15-1.05.25-1.7q.2-.95.05-1.3" fill="#5bbfff" transform="translate(14.35 .55)"/><path d="m.25 9.55 3.1.1q.5 0 .5.45l.45 7-.15.35-.35.2-4.4.25-.4-.15-.15-.4.9-7.35q0-.45.5-.45" fill="#440202" transform="translate(14.35 .55)"/><path d="m3.25 16.65-3.35.2.8-6.25h2.15l.4 6.05" fill="#d80000" transform="translate(14.35 .55)"/><path d="m2.85 10.6.4 6.05-1 .05-.15-3.05-1.9.9.5-3.95h2.15" fill="#960000" transform="translate(14.35 .55)"/><path d="M8.35 9.6q.4 0 .5.45l.9 7.35-.15.4-.4.15-4.4-.25-.35-.2-.15-.35.45-7q0-.45.5-.45l3.1-.1" fill="#440202" transform="translate(14.35 .55)"/><path d="m7.9 10.6.8 6.3-3.35-.2.35-6.05 2.2-.05" fill="#d80000" transform="translate(14.35 .55)"/><path d="m7.9 10.6.8 6.3-1.15-.05q-.05-2.1-1.95-4.15l.1-2.05 2.2-.05" fill="#960000" transform="translate(14.35 .55)"/><path d="M1.95 7.65q.3.15.25.45l-.35 2.5-.35.35-5.1.6-.3-.15-.15-.3.15-5.25.2-.3.35-.05 5.3 2.15" fill="#440202" transform="translate(14.35 .55)"/><path d="m1.35 8.3-.25 1.9-4.3.45.1-4.15 4.45 1.8" fill="#d80000" transform="translate(14.35 .55)"/><path d="M1.4 7.6q.4-.1.55.25l1.6 2.65q.2.4-.1.6l-4.4 4.45-.4.15-.35-.2-3.85-5.1-.1-.45.35-.35 6.7-2" fill="#440202" transform="translate(14.35 .55)"/><path d="m1.3 8.7 1.2 2-3.75 3.75-3.1-4.1L1.3 8.7" fill="#d80000" transform="translate(14.35 .55)"/><path d="m.35 8.95.95-.25 1.2 2-3.75 3.75-.7-.95Q.6 11.05.35 8.95" fill="#960000" transform="translate(14.35 .55)"/><path d="m11.35 5.25.35.05.2.3.15 5.25-.15.3-.3.15-5.1-.6q-.25 0-.35-.35l-.35-2.5q0-.3.25-.45l5.3-2.15" fill="#440202" transform="translate(14.35 .55)"/><path d="m6.65 8.05 4.45-1.8.1 4.15-4.3-.45-.25-1.9" fill="#d80000" transform="translate(14.35 .55)"/><path d="m6.9 9.95-.2-1.7q2.9 0 4.45-.6l.05 2.75-4.3-.45" fill="#960000" transform="translate(14.35 .55)"/><path d="m13.3 9.35.35.35-.1.45-3.85 5.1-.35.2-.4-.15-4.4-4.45q-.25-.25-.1-.6l1.6-2.65q.25-.3.6-.25l6.65 2" fill="#440202" transform="translate(14.35 .55)"/><path d="m6.7 8.45 5.65 1.65-3.1 4.1-3.75-3.75 1.2-2" fill="#d80000" transform="translate(14.35 .55)"/><path d="M9.25 14.2 5.5 10.45l.15-.2 5.8-.4.9.25-3.1 4.1" fill="#960000" transform="translate(14.35 .55)"/><path d="m3.95 7.3 1.85-.4.3.15q1.35 1.05.5 3.3Q6 12 4.15 11.9 1.9 12 1.35 10q-.65-2.2.5-2.8l2.1.1" fill="#440202" transform="translate(14.35 .55)"/><path d="M3.95 8.4q.85-.5 1.55-.5.65.65.25 1.8-.35 1.3-1.7 1.2-1.45.05-1.75-1.25-.25-1 .1-1.65.3-.6 1.55.4" fill="#d80000" transform="translate(14.35 .55)"/><path d="m3.2 10.85-.65-.45-.25-.55q.2.35 1.5.35.75 0 1.25-.4.8-.8-.2-1.8l.8.05q.7 1.05-.1 2.15-.35.5-.85.65-.75.25-1.5 0" fill="#960000" transform="translate(14.35 .55)"/><path d="M3.6 8.35h-.05l.05.05-.7.65q-.15.4 0 .8-.8-.4-.4-1.45l1.1-.05m-7.45 2.2h-.05l1.4-.5 2.3-.65-1.1 1-1.5 1.3-1.05-1.15m.95-3.65 1.8.55.75.25-2.55.25L-3 6.8l.1.1m3.4 7.75.05-.2.35.6.25 1.4-.9.1.1-.6.15-1.3m5.3-.35v-.85l.35 1.2.2 1.8H5.6l.2-2.15m2.9-4.85V9.4q1.25-.15 1.75.35l-.25.25q-1.15-.65-1.5-.55m.5-2.25 1.75-.7q-.05.55-.65.7l-1.15.2.05-.2" fill="#ff6e6e" transform="translate(14.35 .55)"/></g></defs></svg>

<?xml version="1.0" encoding="UTF-8" standalone="no"?>
<svg xmlns:xlink="http://www.w3.org/1999/xlink" height="82.0px" width="84.85px" xmlns="http://www.w3.org/2000/svg">
  <g transform="matrix(1.0, 0.0, 0.0, 1.0, 37.4, 42.25)">
    <use height="38.0" transform="matrix(1.0, 0.0, 0.0, 1.0, -11.95, -17.45)" width="32.05" xlink:href="#sprite0"/>
    <use height="38.95" transform="matrix(1.0, 0.0, 0.0, 1.0, -12.45, -17.95)" width="33.05" xlink:href="#sprite1"/>
    <use height="24.15" transform="matrix(1.0, 0.0, 0.0, 1.0, -14.35, -0.55)" width="36.55" xlink:href="#shape2"/>
  </g>
  <defs>
    <g id="sprite0" transform="matrix(1.0, 0.0, 0.0, 1.0, -0.05, 0.0)">
      <use height="38.0" transform="matrix(1.0, 0.0, 0.0, 1.0, 0.05, 0.0)" width="32.05" xlink:href="#shape0"/>
    </g>
    <g id="shape0" transform="matrix(1.0, 0.0, 0.0, 1.0, -0.05, 0.0)">
      <path d="M27.35 7.4 Q29.5 11.55 30.9 16.15 32.35 20.85 32.05 25.65 31.7 30.6 27.85 33.75 24.05 36.95 19.1 37.8 L16.5 38.0 Q12.9 38.0 9.45 36.85 4.8 35.25 2.35 31.35 -0.2 27.4 0.05 23.0 0.25 18.6 2.05 13.7 3.85 8.75 7.0 5.05 10.1 1.3 14.7 0.1 L16.5 0.0 Q18.4 0.05 20.2 0.8 24.95 2.85 27.35 7.4" fill="#e9b8b8" fill-rule="evenodd" stroke="none"/>
    </g>
    <g id="sprite1" transform="matrix(1.0, 0.0, 0.0, 1.0, 0.45, 0.5)">
      <use height="38.95" transform="matrix(1.0, 0.0, 0.0, 1.0, -0.45, -0.5)" width="33.05" xlink:href="#shape1"/>
    </g>
    <g id="shape1" transform="matrix(1.0, 0.0, 0.0, 1.0, 0.45, 0.5)">
      <path d="M27.35 7.4 Q24.95 2.85 20.2 0.8 17.55 -0.3 14.7 0.1 10.1 1.3 7.0 5.05 3.85 8.75 2.05 13.7 0.25 18.6 0.05 23.0 -0.2 27.4 2.35 31.35 4.8 35.25 9.45 36.85 14.1 38.4 19.1 37.8 24.05 36.95 27.85 33.75 31.7 30.6 32.05 25.65 32.35 20.85 30.9 16.15 29.5 11.55 27.35 7.4 Z" fill="none" stroke="#000000" stroke-linecap="round" stroke-linejoin="round" stroke-width="1.0"/>
    </g>
    <g id="shape2" transform="matrix(1.0, 0.0, 0.0, 1.0, 14.35, 0.55)">
      <path d="M22.1 16.3 L22.2 16.6 22.0 16.95 18.65 20.0 18.9 20.55 18.85 20.7 18.5 21.0 12.9 22.55 12.9 22.65 12.8 22.95 12.45 23.1 4.0 23.6 Q3.5 23.6 3.5 23.2 L3.45 23.0 -3.8 22.8 -4.3 22.3 -4.3 21.95 -9.25 21.05 -9.55 20.8 -9.65 20.55 -9.6 20.45 -9.5 19.9 -13.85 18.0 -14.1 17.7 -14.15 17.5 -14.1 17.35 -11.45 11.4 -11.15 11.1 -10.8 11.1 Q-3.95 14.05 7.35 13.5 16.7 13.0 18.3 11.8 L18.7 11.7 19.05 11.9 22.1 16.3" fill="#030a36" fill-rule="evenodd" stroke="none"/>
      <path d="M4.15 22.05 L-3.3 21.85 -3.4 21.15 -8.5 20.2 -8.45 19.3 -13.0 17.3 -10.7 12.15 Q-4.1 14.9 7.25 14.35 16.8 13.9 18.45 12.75 L21.05 16.5 17.5 19.6 17.6 20.25 11.9 21.8 11.8 22.2 4.3 22.7 4.15 22.05" fill="#004dd6" fill-rule="evenodd" stroke="none"/>
      <path d="M8.3 22.4 Q9.75 18.3 9.0 14.25 13.0 14.0 18.45 12.75 L21.05 16.5 19.05 18.25 16.0 17.5 17.5 19.6 17.6 20.25 14.3 21.15 11.85 18.35 Q12.05 21.05 11.8 22.2 L8.3 22.4" fill="#00124f" fill-rule="evenodd" stroke="none"/>
      <path d="M1.0 21.9 L3.55 16.6 4.1 22.05 1.0 21.9" fill="#00124f" fill-rule="evenodd" stroke="none"/>
      <path d="M-3.4 21.15 L-5.55 20.7 -3.15 17.25 -3.4 21.15" fill="#00124f" fill-rule="evenodd" stroke="none"/>
      <path d="M-8.45 19.3 L-9.9 18.7 -8.05 16.65 -8.45 19.3" fill="#00124f" fill-rule="evenodd" stroke="none"/>
      <path d="M19.5 1.2 Q20.0 1.3 20.0 1.65 L20.9 12.95 20.8 13.3 Q17.1 16.95 4.7 17.15 -7.65 17.35 -12.95 13.8 L-13.15 13.35 Q-12.75 11.6 -12.65 6.95 L-12.45 2.2 -12.15 1.85 -11.6 1.85 Q-9.5 3.1 4.75 8.5 L13.9 3.75 Q18.85 1.05 19.5 1.2" fill="#4d63ab" fill-rule="evenodd" stroke="none"/>
      <path d="M4.8 9.45 Q12.1 6.0 18.95 2.25 L19.8 12.8 Q16.4 16.05 4.8 16.25 -6.9 16.45 -12.0 13.2 -11.6 11.25 -11.6 8.0 L-11.45 2.95 4.8 9.45" fill="#ffffff" fill-rule="evenodd" stroke="none"/>
      <path d="M-9.15 14.5 L-6.85 11.95 -5.65 15.4 -9.15 14.5" fill="#ccecf4" fill-rule="evenodd" stroke="none"/>
      <path d="M4.8 9.45 Q12.1 6.0 18.95 2.25 L19.8 12.8 Q18.7 13.9 16.15 14.7 L14.2 12.15 13.0 15.45 Q4.7 17.0 -4.05 15.65 -1.6 10.75 -1.55 7.0 L4.8 9.45" fill="#ccecf4" fill-rule="evenodd" stroke="none"/>
      <path d="M4.4 10.6 Q4.7 10.9 4.4 11.2 4.15 11.55 3.8 11.35 1.45 10.25 -3.35 9.95 -7.3 9.7 -8.8 9.0 -11.35 7.8 -11.7 4.45 -11.8 4.0 -11.25 3.9 -9.15 3.6 -3.85 5.6 2.0 7.8 4.4 10.6" fill="#440202" fill-rule="evenodd" stroke="none"/>
      <path d="M-4.55 6.35 Q-0.45 8.0 1.75 9.6 L-5.7 8.8 Q-10.05 8.2 -10.6 4.9 -8.9 4.65 -4.55 6.35" fill="#d80000" fill-rule="evenodd" stroke="none"/>
      <path d="M-5.15 8.85 Q-9.3 8.4 -10.25 6.0 -8.8 7.15 -6.25 7.7 L-2.1 7.45 Q0.25 8.5 1.75 9.6 L-5.15 8.85" fill="#960000" fill-rule="evenodd" stroke="none"/>
      <path d="M4.85 11.55 L4.2 11.4 Q4.0 11.1 4.25 10.75 6.65 8.0 12.5 5.8 17.75 3.8 19.9 4.1 20.4 4.2 20.3 4.65 19.95 8.0 17.45 9.2 15.95 9.9 12.0 10.15 7.1 10.45 4.85 11.55" fill="#440202" fill-rule="evenodd" stroke="none"/>
      <path d="M13.2 6.55 Q17.55 4.85 19.2 5.1 18.7 8.4 14.35 8.95 9.05 9.15 6.9 9.8 9.05 8.2 13.2 6.55" fill="#d80000" fill-rule="evenodd" stroke="none"/>
      <path d="M6.9 9.8 L8.5 8.8 Q13.75 8.75 18.7 6.6 17.55 8.7 13.55 9.05 L6.9 9.8" fill="#960000" fill-rule="evenodd" stroke="none"/>
      <path d="M-12.65 -0.25 L-12.3 -0.55 Q-11.1 -1.0 5.0 8.55 5.3 8.75 5.2 9.1 5.1 9.55 4.7 9.45 -0.95 9.4 -12.85 3.9 L-14.05 3.35 -14.35 2.95 -14.2 2.55 -13.3 1.6 -12.65 -0.25" fill="#030a36" fill-rule="evenodd" stroke="none"/>
      <path d="M-11.8 0.5 Q-7.95 2.0 2.6 8.3 -1.35 7.7 -7.15 5.35 L-13.05 2.75 -12.35 2.05 -11.8 0.5" fill="#004dd6" fill-rule="evenodd" stroke="none"/>
      <path d="M-13.05 2.75 L-12.45 2.2 Q-8.05 4.45 -5.85 5.0 L-2.65 5.3 2.6 8.3 Q-1.35 7.7 -7.15 5.35 L-13.05 2.75" fill="#00124f" fill-rule="evenodd" stroke="none"/>
      <path d="M20.6 0.25 L21.15 2.05 21.5 2.5 22.05 3.0 22.15 3.45 21.85 3.8 20.7 4.3 Q9.4 9.5 3.6 9.4 L3.15 9.05 Q3.05 8.65 3.4 8.5 5.5 7.15 11.95 3.7 19.55 -0.4 20.25 -0.1 L20.6 0.25" fill="#030a36" fill-rule="evenodd" stroke="none"/>
      <path d="M19.75 0.9 L20.25 2.45 20.9 3.2 Q11.85 7.5 5.7 8.3 16.2 2.25 19.75 0.9" fill="#004dd6" fill-rule="evenodd" stroke="none"/>
      <path d="M20.05 1.9 L20.25 2.45 20.9 3.2 Q11.85 7.5 5.7 8.3 L9.9 5.95 Q14.4 5.2 20.05 1.9" fill="#00124f" fill-rule="evenodd" stroke="none"/>
      <path d="M3.3 8.3 L3.5 8.6 3.25 8.8 Q-0.75 8.3 -6.6 6.05 -11.95 4.05 -13.05 2.95 -13.25 2.75 -13.05 2.55 L-12.65 2.6 Q-11.75 3.55 -6.5 5.55 -0.7 7.8 3.3 8.3" fill="#ffffff" fill-rule="evenodd" stroke="none"/>
      <path d="M20.45 2.8 Q20.65 2.65 20.8 2.8 21.05 3.05 20.9 3.2 9.7 8.4 5.4 8.7 L5.15 8.5 Q5.15 8.3 5.4 8.2 9.55 7.9 20.45 2.8" fill="#ffffff" fill-rule="evenodd" stroke="none"/>
      <path d="M-7.2 2.95 L-6.25 3.5 -5.2 4.05 -3.95 4.7 -4.7 4.85 -5.85 4.15 -7.25 2.95 -7.2 2.95" fill="#5bbfff" fill-rule="evenodd" stroke="none"/>
      <path d="M15.5 3.15 Q15.5 3.55 15.1 3.75 L13.8 4.35 12.35 4.8 15.5 3.15" fill="#5bbfff" fill-rule="evenodd" stroke="none"/>
      <path d="M-11.4 15.25 L-11.4 15.3 Q-11.35 16.15 -12.15 17.85 L-12.75 17.65 -11.4 15.25" fill="#5bbfff" fill-rule="evenodd" stroke="none"/>
      <path d="M-7.75 17.9 L-7.65 17.75 -7.95 20.4 -8.4 20.4 -8.3 19.9 -7.75 17.9" fill="#5bbfff" fill-rule="evenodd" stroke="none"/>
      <path d="M-2.7 17.65 L-2.6 17.65 -2.55 19.3 -2.5 20.65 -2.3 21.7 -3.15 21.7 -3.0 20.65 -2.75 18.95 Q-2.55 18.0 -2.7 17.65" fill="#5bbfff" fill-rule="evenodd" stroke="none"/>
      <path d="M0.25 9.55 L3.35 9.65 Q3.85 9.65 3.85 10.1 L4.3 17.1 4.15 17.45 3.8 17.65 -0.6 17.9 -1.0 17.75 -1.15 17.35 -0.25 10.0 Q-0.25 9.55 0.25 9.55" fill="#440202" fill-rule="evenodd" stroke="none"/>
      <path d="M3.25 16.65 L-0.1 16.85 0.7 10.6 2.85 10.6 3.25 16.65" fill="#d80000" fill-rule="evenodd" stroke="none"/>
      <path d="M2.85 10.6 L3.25 16.65 2.25 16.7 2.1 13.65 0.2 14.55 0.7 10.6 2.85 10.6" fill="#960000" fill-rule="evenodd" stroke="none"/>
      <path d="M8.35 9.6 Q8.75 9.6 8.85 10.05 L9.75 17.4 9.6 17.8 9.2 17.95 4.8 17.7 4.45 17.5 4.3 17.15 4.75 10.15 Q4.75 9.7 5.25 9.7 L8.35 9.6" fill="#440202" fill-rule="evenodd" stroke="none"/>
      <path d="M7.9 10.6 L8.7 16.9 5.35 16.7 5.7 10.65 7.9 10.6" fill="#d80000" fill-rule="evenodd" stroke="none"/>
      <path d="M7.9 10.6 L8.7 16.9 7.55 16.85 Q7.5 14.75 5.6 12.7 L5.7 10.65 7.9 10.6" fill="#960000" fill-rule="evenodd" stroke="none"/>
      <path d="M1.95 7.65 Q2.25 7.8 2.2 8.1 L1.85 10.6 1.5 10.95 -3.6 11.55 -3.9 11.4 -4.05 11.1 -3.9 5.85 -3.7 5.55 -3.35 5.5 1.95 7.65" fill="#440202" fill-rule="evenodd" stroke="none"/>
      <path d="M1.35 8.3 L1.1 10.2 -3.2 10.65 -3.1 6.5 1.35 8.3" fill="#d80000" fill-rule="evenodd" stroke="none"/>
      <path d="M1.4 7.6 Q1.8 7.5 1.95 7.85 L3.55 10.5 Q3.75 10.9 3.45 11.1 L-0.95 15.55 -1.35 15.7 -1.7 15.5 -5.55 10.4 -5.65 9.95 -5.3 9.6 1.4 7.6" fill="#440202" fill-rule="evenodd" stroke="none"/>
      <path d="M1.3 8.7 L2.5 10.7 -1.25 14.45 -4.35 10.35 1.3 8.7" fill="#d80000" fill-rule="evenodd" stroke="none"/>
      <path d="M0.35 8.95 L1.3 8.7 2.5 10.7 -1.25 14.45 -1.95 13.5 Q0.6 11.05 0.35 8.95" fill="#960000" fill-rule="evenodd" stroke="none"/>
      <path d="M11.35 5.25 L11.7 5.3 11.9 5.6 12.05 10.85 11.9 11.15 11.6 11.3 6.5 10.7 Q6.25 10.7 6.15 10.35 L5.8 7.85 Q5.8 7.55 6.05 7.4 L11.35 5.25" fill="#440202" fill-rule="evenodd" stroke="none"/>
      <path d="M6.65 8.05 L11.1 6.25 11.2 10.4 6.9 9.95 6.65 8.05" fill="#d80000" fill-rule="evenodd" stroke="none"/>
      <path d="M6.9 9.95 L6.7 8.25 Q9.6 8.25 11.15 7.65 L11.2 10.4 6.9 9.95" fill="#960000" fill-rule="evenodd" stroke="none"/>
      <path d="M13.3 9.35 L13.65 9.7 13.55 10.15 9.7 15.25 9.35 15.45 8.95 15.3 4.55 10.85 Q4.3 10.6 4.45 10.25 L6.05 7.6 Q6.3 7.3 6.65 7.35 L13.3 9.35" fill="#440202" fill-rule="evenodd" stroke="none"/>
      <path d="M6.7 8.45 L12.35 10.1 9.25 14.2 5.5 10.45 6.7 8.45" fill="#d80000" fill-rule="evenodd" stroke="none"/>
      <path d="M9.25 14.2 L5.5 10.45 5.65 10.25 11.45 9.85 12.35 10.1 9.25 14.2" fill="#960000" fill-rule="evenodd" stroke="none"/>
      <path d="M3.95 7.3 L5.8 6.9 6.1 7.05 Q7.45 8.1 6.6 10.35 6.0 12.0 4.15 11.9 1.9 12.0 1.35 10.0 0.7 7.8 1.85 7.2 L3.95 7.3" fill="#440202" fill-rule="evenodd" stroke="none"/>
      <path d="M3.95 8.4 Q4.8 7.9 5.5 7.9 6.15 8.55 5.75 9.7 5.4 11.0 4.05 10.9 2.6 10.95 2.3 9.65 2.05 8.65 2.4 8.0 2.7 7.4 3.95 8.4" fill="#d80000" fill-rule="evenodd" stroke="none"/>
      <path d="M3.2 10.85 L2.55 10.4 2.3 9.85 Q2.5 10.2 3.8 10.2 4.55 10.2 5.05 9.8 5.85 9.0 4.85 8.0 L5.65 8.05 Q6.35 9.1 5.55 10.2 5.2 10.7 4.7 10.85 3.95 11.1 3.2 10.85" fill="#960000" fill-rule="evenodd" stroke="none"/>
      <path d="M3.6 8.35 L3.55 8.35 3.6 8.4 2.9 9.05 Q2.75 9.45 2.9 9.85 2.1 9.45 2.5 8.4 L3.6 8.35" fill="#ff6e6e" fill-rule="evenodd" stroke="none"/>
      <path d="M-3.85 10.55 L-3.9 10.55 -2.5 10.05 -0.2 9.4 -1.3 10.4 -2.8 11.7 -3.85 10.55" fill="#ff6e6e" fill-rule="evenodd" stroke="none"/>
      <path d="M-2.9 6.9 L-1.1 7.45 -0.35 7.7 -2.9 7.95 -3.0 6.8 -2.9 6.9" fill="#ff6e6e" fill-rule="evenodd" stroke="none"/>
      <path d="M0.5 14.65 L0.55 14.45 0.9 15.05 1.15 16.45 0.25 16.55 0.35 15.95 0.5 14.65" fill="#ff6e6e" fill-rule="evenodd" stroke="none"/>
      <path d="M5.8 14.3 L5.8 13.45 6.15 14.65 6.35 16.45 5.6 16.45 5.8 14.3" fill="#ff6e6e" fill-rule="evenodd" stroke="none"/>
      <path d="M8.7 9.45 L8.7 9.4 Q9.95 9.25 10.45 9.75 L10.2 10.0 Q9.05 9.35 8.7 9.45" fill="#ff6e6e" fill-rule="evenodd" stroke="none"/>
      <path d="M9.2 7.2 L10.95 6.5 Q10.9 7.05 10.3 7.2 L9.15 7.4 9.2 7.2" fill="#ff6e6e" fill-rule="evenodd" stroke="none"/>
    </g>
  </defs>
</svg>
